X: 1
T: Julia's Jewel-of-a Jig
M: 6/8
L: 1/8
C: Dick Atlee
S: Julia Johnston and Brian Lanoie's wedding, July 2006
F: http://dickatlee.com/music/dick/abc/julias_jewel-of-a_jig.abc 2015-2-25
R: jig
K: G
"(D7)"E3 |\
"G"D2B AGF | E2D D2E | DGB d2B | "Am"(A3 A2)B |\
cBc a2g | "D7"f2e d2^d | e^de =d^cd | "G"B3 G2 ||
E |\
"G"D2B AGF | E2D D2E | DGB c2d | "Am"(A3 A2)B |\
cBc e^de | gfe "D7"d2^d | e^de c2A | "G"(G3 G2) |]
A |\
"G"B^AB G2=A | B^AB G2B | d^cd ^d2e | "Am"(c3 c2)A |\
cBc A2G | "D7"F^EF D2F | ABc d2e | "G"B3 G2 ||
A |\
"G"B^AB G2=A | B^AB G2=A | Bcd edc | "Am"(A3 A2)B |\
cBc A^GA | "D7"F^EF D2=E | FcF BFA | "G"G3 |]
